svg/FoundationIcons/fi-social-zurb.svg

<svg xmlns="http://www.w3.org/2000/svg" viewBox="0 0 100 100" enable-background="new 0 0 100 100"><path fill="#231f20" d="m79 14h-58c-3.866 0-7 3.134-7 7v58c0 3.866 3.134 7 7 7h58c3.866 0 7-3.134 7-7v-58c0-3.866-3.134-7-7-7m-8.647 43.23v5.339c-.104 1.056-.924 1.888-1.973 2.02l-30.14.002c-2.232 0-4.135-.72-5.707-2.157-1.571-1.438-2.357-3.177-2.357-5.221 0-1.626.531-3.071 1.594-4.345 1.064-1.27 2.411-2.154 4.04-2.656l26.341-7.527h-31.975v-5.096c.015-1.07.771-1.955 1.779-2.177h30.338c2.232 0 4.133.714 5.705 2.139 1.572 1.427 2.359 3.13 2.359 5.112 0 1.655-.536 3.111-1.607 4.371-1.071 1.262-2.449 2.141-4.134 2.635l-26.377 7.562h32.12"/></svg>

<?xml version="1.0" encoding="utf-8"?>
<!-- Generator: Adobe Illustrator 17.0.0, SVG Export Plug-In . SVG Version: 6.00 Build 0)  -->
<!DOCTYPE svg PUBLIC "-//W3C//DTD SVG 1.1//EN" "http://www.w3.org/Graphics/SVG/1.1/DTD/svg11.dtd">
<svg version="1.1" id="Layer_1" xmlns="http://www.w3.org/2000/svg" xmlns:xlink="http://www.w3.org/1999/xlink" x="0px" y="0px"
	 width="100px" height="100px" viewBox="0 0 100 100" enable-background="new 0 0 100 100" xml:space="preserve">
<g>
	<g>
		<path fill="#231F20" d="M79,14H21c-3.866,0-7,3.134-7,7v58c0,3.866,3.134,7,7,7h58c3.866,0,7-3.134,7-7V21
			C86,17.134,82.866,14,79,14z M70.353,57.23v5.339c-0.104,1.056-0.924,1.888-1.973,2.019L38.235,64.59
			c-2.232,0-4.135-0.72-5.707-2.157c-1.571-1.438-2.357-3.177-2.357-5.221c0-1.626,0.531-3.071,1.594-4.345
			c1.064-1.27,2.411-2.154,4.041-2.656l26.341-7.527H30.172v-5.096c0.015-1.07,0.771-1.955,1.779-2.177h30.338
			c2.232,0,4.133,0.714,5.705,2.139c1.572,1.427,2.359,3.13,2.359,5.112c0,1.655-0.536,3.111-1.607,4.371
			c-1.071,1.262-2.449,2.141-4.134,2.635L38.235,57.23H70.353z"/>
	</g>
</g>
</svg>
